X: 1
T: The Whirlpool
R: reel
M: 4/4
L: 1/8
K: Gmaj
de|:g2 ed decA|B2 AG GGGA|B2 AG GAED|DEED E2 Bc|
d2 cB geed|decd Bdba|g2 ed bc'af|1 fggd g2 de:|2 fggd g2 ga||
|:b4 c'3 b|d'3e' b2 bc'|d'4 g3 f|feed e2 Bc|
d2 cB geed|decd Bdba|g2 ed bc'af|1 fggd g2 ga:|2 fggd g4||

